Adwaita++-Dark/status/symbolic/starred-symbolic.svg

<svg height="16" width="16" xmlns="http://www.w3.org/2000/svg">
  <path d="m8 0-2.12 5.88-5.88.32 4.57 3.71-1.51 6.09 4.94-3.6 4.94 3.6-1.51-6.09 4.57-3.71-5.88-.32z" fill="#e6ddff"/>
</svg>

<svg xmlns="http://www.w3.org/2000/svg" width="16" height="16" version="1.1">
 <path style="fill:#E6DDFF" d="M 8,0 5.88,5.88 0,6.2 4.57,9.91 3.06,16 8,12.4 12.94,16 11.43,9.91 16,6.2 10.12,5.88 Z"/>
</svg>
